x-pack/plugins/enterprise_search/public/assets/source_icons/jira_cloud.svg

<svg fill="none" height="100" viewBox="0 0 100 100" width="100" xmlns="http://www.w3.org/2000/svg" xmlns:xlink="http://www.w3.org/1999/xlink"><linearGradient id="a"><stop offset=".18" stop-color="#0052cc"/><stop offset="1" stop-color="#2684ff"/></linearGradient><linearGradient id="b" gradientUnits="userSpaceOnUse" x1="75.1425" x2="54.7827" xlink:href="#a" y1="24.0781" y2="45.3227"/><linearGradient id="c" gradientUnits="userSpaceOnUse" x1="1956.92" x2="1082.22" xlink:href="#a" y1="1849.11" y2="2714.75"/><clipPath id="d"><path d="m0 0h100v100h-100z"/></clipPath><g clip-path="url(#d)"><path d="m95.8224 0h-48.1546c0 5.76522 2.2902 11.2943 6.3669 15.3709 4.0766 4.0767 9.6057 6.3669 15.3709 6.3669h8.8706v8.5642c.0077 11.9946 9.7293 21.7162 21.7238 21.7238v-47.84814c0-2.30726-1.8704-4.17766-4.1776-4.17766z" fill="#2684ff"/><path d="m71.9952 23.9944h-48.1545c.0077 11.9946 9.7293 21.7162 21.7239 21.7238h8.8705v8.5921c.0154 11.9946 9.7432 21.7099 21.7378 21.7099v-47.8482c0-2.3072-1.8704-4.1776-4.1777-4.1776z" fill="url(#b)"/><path d="m48.1545 47.9724h-48.1545c0 12.0055 9.73233 21.7378 21.7378 21.7378h8.8984v8.5642c.0077 11.9837 9.7123 21.7008 21.696 21.7238v-47.8481c0-2.3073-1.8704-4.1777-4.1777-4.1777z" fill="url(#c)"/></g></svg>

<svg fill="none" height="100" width="100" xmlns="http://www.w3.org/2000/svg" xmlns:xlink="http://www.w3.org/1999/xlink"><linearGradient id="a"><stop offset=".18" stop-color="#0052cc"/><stop offset="1" stop-color="#2684ff"/></linearGradient><linearGradient id="c" gradientUnits="userSpaceOnUse" x1="75.142" x2="54.783" xlink:href="#a" y1="24.078" y2="45.323"/><linearGradient id="d" gradientUnits="userSpaceOnUse" x1="1956.92" x2="1082.22" xlink:href="#a" y1="1849.11" y2="2714.75"/><clipPath id="b"><path d="M0 0h100v100H0z"/></clipPath><g clip-path="url(#b)"><path d="M95.822 0H47.668a21.737 21.737 0 0 0 21.738 21.738h8.87v8.564c.008 11.995 9.73 21.716 21.724 21.724V4.178A4.178 4.178 0 0 0 95.822 0z" fill="#2684ff"/><path d="M71.995 23.994H23.841c.007 11.995 9.729 21.717 21.724 21.724h8.87v8.592c.015 11.995 9.743 21.71 21.738 21.71V28.172a4.178 4.178 0 0 0-4.178-4.178z" fill="url(#c)"/><path d="M48.154 47.972H0C0 59.978 9.732 69.71 21.738 69.71h8.898v8.564c.008 11.984 9.713 21.701 21.696 21.724V52.15a4.178 4.178 0 0 0-4.178-4.178z" fill="url(#d)"/></g></svg>
